Icons/com_valvesoftware_android_steam_community.svg

<svg viewBox="0 0 48 48" xmlns:xlink="http://www.w3.org/1999/xlink">
 <defs>
  <linearGradient id="0">
   <stop stop-opacity="0"/>
   <stop offset="1"/>
  </linearGradient>
  <linearGradient xlink:href="#0" id="1" gradientUnits="userSpaceOnUse" gradientTransform="translate(4e-7,-48)" y1="47" x2="0" y2="1"/>
  <clipPath id="2">
   <g transform="translate(0,-1004.3622)">
    <rect rx="4" y="1005.36" x="1" height="46" width="46" fill="#1890d0"/>
   </g>
  </clipPath>
  <clipPath id="3">
   <g transform="translate(0,-1004.3622)">
    <rect rx="4" y="1005.36" x="1" height="46" width="46" fill="#1890d0"/>
   </g>
  </clipPath>
 </defs>
 <g>
  <g transform="translate(0,-1004.3622)">
   <path d="m 5,1006.3622 c -2.216,0 -4,1.784 -4,4 l 0,37.25 c 0,2.216 1.784,4 4,4 l 38,0 c 2.216,0 4,-1.784 4,-4 l 0,-37.25 c 0,-2.216 -1.784,-4 -4,-4 l -38,0 z m -4,41.5 0,0.5 c 0,2.216 1.784,4 4,4 l 38,0 c 2.216,0 4,-1.784 4,-4 l 0,-0.5 c 0,2.216 -1.784,4 -4,4 l -38,0 c -2.216,0 -4,-1.784 -4,-4 z" opacity="0.02"/>
   <path d="m 1,1047.6122 0,0.25 c 0,2.216 1.784,4 4,4 l 38,0 c 2.216,0 4,-1.784 4,-4 l 0,-0.25 c 0,2.216 -1.784,4 -4,4 l -38,0 c -2.216,0 -4,-1.784 -4,-4 z" opacity="0.05"/>
   <rect width="46" height="46" x="1" y="1005.61" rx="4" opacity="0.1"/>
  </g>
 </g>
 <g>
  <g transform="translate(0,-1004.3622)">
   <rect rx="4" y="1005.36" x="1" height="46" width="46" fill="#3d3d3d"/>
  </g>
 </g>
 <g>
  <rect transform="scale(1,-1)" width="46" height="46" x="1" y="-46.998" rx="4" opacity="0.1" fill="url(#1)"/>
 </g>
 <g>
  <g clip-path="url(#2)">
   <g opacity="0.1">
    <g>
     <path d="M 31.3125 12 C 28.183594 12 25.621094 14.476562 25.621094 17.5 C 25.621094 20.523438 28.183594 23.003906 31.3125 23.003906 C 34.4375 23.003906 37 20.523438 37 17.5 C 37 14.476562 34.4375 12 31.3125 12 Z M 31.3125 13.847656 C 33.414062 13.847656 35.089844 15.46875 35.089844 17.5 C 35.089844 19.535156 33.414062 21.15625 31.3125 21.15625 C 29.207031 21.15625 27.53125 19.535156 27.53125 17.5 C 27.53125 15.46875 29.207031 13.847656 31.3125 13.847656 Z M 31.3125 13.847656 "/>
     <path d="M 33.746094 17.496094 C 33.746094 18.796875 32.65625 19.851562 31.308594 19.851562 C 29.964844 19.851562 28.871094 18.796875 28.871094 17.496094 C 28.871094 16.191406 29.964844 15.136719 31.308594 15.136719 C 32.65625 15.136719 33.746094 16.191406 33.746094 17.496094 Z M 33.746094 17.496094 "/>
     <path d="M 26.433594 19.851562 L 26.433594 26.925781 L 30.496094 27.710938 L 33.96875 21.84375 L 30.34375 21.84375 Z M 26.433594 19.851562 "/>
     <path d="M 27.246094 26.140625 C 25.015625 26.140625 23.183594 27.910156 23.183594 30.070312 C 23.183594 32.230469 25.015625 34 27.246094 34 C 29.480469 34 31.3125 32.230469 31.3125 30.070312 C 31.3125 27.910156 29.480469 26.140625 27.246094 26.140625 Z M 27.246094 27.460938 C 28.75 27.460938 29.945312 28.617188 29.945312 30.070312 C 29.945312 31.523438 28.75 32.679688 27.246094 32.679688 C 25.746094 32.679688 24.546875 31.523438 24.546875 30.070312 C 24.546875 28.617188 25.746094 27.460938 27.246094 27.460938 Z M 27.246094 27.460938 "/>
     <path d="M 15.0625 20.636719 C 12.832031 20.636719 11 22.410156 11 24.566406 C 11 26.726562 12.832031 28.5 15.0625 28.5 C 17.296875 28.5 19.128906 26.726562 19.128906 24.566406 C 19.128906 22.410156 17.296875 20.636719 15.0625 20.636719 Z M 15.054688 22.210938 C 16.683594 22.210938 17.496094 22.996094 17.496094 24.566406 C 17.496094 26.140625 16.683594 26.925781 15.054688 26.925781 C 13.429688 26.925781 12.617188 26.140625 12.617188 24.566406 C 12.617188 22.996094 13.429688 22.210938 15.054688 22.210938 Z M 15.054688 22.210938 "/>
     <path d="M 15.953125 23.164062 C 15.03125 22.785156 13.96875 23.199219 13.578125 24.09375 C 13.1875 24.984375 13.617188 26.015625 14.539062 26.390625 L 26.613281 31.640625 C 27.535156 32.019531 28.601562 31.605469 28.992188 30.710938 C 29.382812 29.820312 28.953125 28.789062 28.03125 28.414062 Z M 15.953125 23.164062 "/>
    </g>
   </g>
  </g>
 </g>
 <g>
  <g clip-path="url(#3)">
   <g transform="translate(0,-1)">
    <g>
     <path d="M 31.3125 12 C 28.183594 12 25.621094 14.476562 25.621094 17.5 C 25.621094 20.523438 28.183594 23.003906 31.3125 23.003906 C 34.4375 23.003906 37 20.523438 37 17.5 C 37 14.476562 34.4375 12 31.3125 12 Z M 31.3125 13.847656 C 33.414062 13.847656 35.089844 15.46875 35.089844 17.5 C 35.089844 19.535156 33.414062 21.15625 31.3125 21.15625 C 29.207031 21.15625 27.53125 19.535156 27.53125 17.5 C 27.53125 15.46875 29.207031 13.847656 31.3125 13.847656 Z M 31.3125 13.847656 " fill="#f9f9f9"/>
     <path d="M 33.746094 17.496094 C 33.746094 18.796875 32.65625 19.851562 31.308594 19.851562 C 29.964844 19.851562 28.871094 18.796875 28.871094 17.496094 C 28.871094 16.191406 29.964844 15.136719 31.308594 15.136719 C 32.65625 15.136719 33.746094 16.191406 33.746094 17.496094 Z M 33.746094 17.496094 " fill="#f9f9f9"/>
     <path d="M 26.433594 19.851562 L 26.433594 26.925781 L 30.496094 27.710938 L 33.96875 21.84375 L 30.34375 21.84375 Z M 26.433594 19.851562 " fill="#f9f9f9"/>
     <path d="M 27.246094 26.140625 C 25.015625 26.140625 23.183594 27.910156 23.183594 30.070312 C 23.183594 32.230469 25.015625 34 27.246094 34 C 29.480469 34 31.3125 32.230469 31.3125 30.070312 C 31.3125 27.910156 29.480469 26.140625 27.246094 26.140625 Z M 27.246094 27.460938 C 28.75 27.460938 29.945312 28.617188 29.945312 30.070312 C 29.945312 31.523438 28.75 32.679688 27.246094 32.679688 C 25.746094 32.679688 24.546875 31.523438 24.546875 30.070312 C 24.546875 28.617188 25.746094 27.460938 27.246094 27.460938 Z M 27.246094 27.460938 " fill="#f9f9f9"/>
     <path d="M 15.0625 20.636719 C 12.832031 20.636719 11 22.410156 11 24.566406 C 11 26.726562 12.832031 28.5 15.0625 28.5 C 17.296875 28.5 19.128906 26.726562 19.128906 24.566406 C 19.128906 22.410156 17.296875 20.636719 15.0625 20.636719 Z M 15.054688 22.210938 C 16.683594 22.210938 17.496094 22.996094 17.496094 24.566406 C 17.496094 26.140625 16.683594 26.925781 15.054688 26.925781 C 13.429688 26.925781 12.617188 26.140625 12.617188 24.566406 C 12.617188 22.996094 13.429688 22.210938 15.054688 22.210938 Z M 15.054688 22.210938 " fill="#f9f9f9"/>
     <path d="M 15.953125 23.164062 C 15.03125 22.785156 13.96875 23.199219 13.578125 24.09375 C 13.1875 24.984375 13.617188 26.015625 14.539062 26.390625 L 26.613281 31.640625 C 27.535156 32.019531 28.601562 31.605469 28.992188 30.710938 C 29.382812 29.820312 28.953125 28.789062 28.03125 28.414062 Z M 15.953125 23.164062 " fill="#f9f9f9"/>
    </g>
   </g>
  </g>
 </g>
 <g>
  <g transform="translate(0,-1004.3622)">
   <path d="m 1,1043.3622 0,4 c 0,2.216 1.784,4 4,4 l 38,0 c 2.216,0 4,-1.784 4,-4 l 0,-4 c 0,2.216 -1.784,4 -4,4 l -38,0 c -2.216,0 -4,-1.784 -4,-4 z" opacity="0.1"/>
  </g>
 </g>
</svg>

<svg viewBox="0 0 48 48"><defs><linearGradient id="linearGradient3764" x1="1" x2="47" gradientUnits="userSpaceOnUse" gradientTransform="translate(-48.000001,0.00221467)"><stop stop-color="#333" stop-opacity="1"/><stop offset="1" stop-color="#3d3d3d" stop-opacity="1"/></linearGradient><clipPath id="clipPath-993268721"><g transform="translate(0,-1004.3622)"><rect rx="4" y="1005.36" x="1" height="46" width="46" fill="#1890d0"/></g></clipPath><clipPath id="clipPath-007036029"><g transform="translate(0,-1004.3622)"><rect rx="4" y="1005.36" x="1" height="46" width="46" fill="#1890d0"/></g></clipPath></defs><g><path d="m 1 43 l 0 0.25 c 0 2.216 1.784 4 4 4 l 38 0 c 2.216 0 4 -1.784 4 -4 l 0 -0.25 c 0 2.216 -1.784 4 -4 4 l -38 0 c -2.216 0 -4 -1.784 -4 -4 z m 0 0.5 l 0 0.5 c 0 2.216 1.784 4 4 4 l 38 0 c 2.216 0 4 -1.784 4 -4 l 0 -0.5 c 0 2.216 -1.784 4 -4 4 l -38 0 c -2.216 0 -4 -1.784 -4 -4 z" opacity="0.02"/><path d="m 1 43.25 l 0 0.25 c 0 2.216 1.784 4 4 4 l 38 0 c 2.216 0 4 -1.784 4 -4 l 0 -0.25 c 0 2.216 -1.784 4 -4 4 l -38 0 c -2.216 0 -4 -1.784 -4 -4 z" opacity="0.05"/><path d="m 1 43 l 0 0.25 c 0 2.216 1.784 4 4 4 l 38 0 c 2.216 0 4 -1.784 4 -4 l 0 -0.25 c 0 2.216 -1.784 4 -4 4 l -38 0 c -2.216 0 -4 -1.784 -4 -4 z" opacity="0.1"/></g><g><rect width="46" height="46" x="-47" y="1" rx="4" transform="matrix(0,-1,1,0,0,0)" fill="url(#linearGradient3764)" fill-opacity="1"/></g><g><g clip-path="url(#clipPath-993268721)"><g opacity="0.1"><!-- color: #3d3d3d --><g><path d="m 31.31 12 c -3.129 0 -5.691 2.477 -5.691 5.5 c 0 3.02 2.563 5.504 5.691 5.504 c 3.125 0 5.688 -2.48 5.688 -5.504 c 0 -3.02 -2.563 -5.5 -5.688 -5.5 m 0 1.848 c 2.102 0 3.777 1.621 3.777 3.652 c 0 2.035 -1.676 3.656 -3.777 3.656 c -2.105 0 -3.781 -1.621 -3.781 -3.656 c 0 -2.031 1.676 -3.652 3.781 -3.652 m 0 0" fill="#000"/><path d="m 33.746 17.496 c 0 1.301 -1.09 2.355 -2.438 2.355 c -1.344 0 -2.438 -1.055 -2.438 -2.355 c 0 -1.305 1.094 -2.359 2.438 -2.359 c 1.348 0 2.438 1.055 2.438 2.359 m 0 0" fill="#000"/><path d="m 26.434 19.852 l 0 7.07 l 4.063 0.785 l 3.473 -5.867 l -3.625 0 m -3.91 -1.992" fill="#000"/><path d="m 27.25 26.14 c -2.23 0 -4.063 1.77 -4.063 3.93 c 0 2.16 1.832 3.93 4.063 3.93 c 2.234 0 4.066 -1.77 4.066 -3.93 c 0 -2.16 -1.832 -3.93 -4.066 -3.93 m 0 1.32 c 1.504 0 2.699 1.156 2.699 2.609 c 0 1.453 -1.195 2.609 -2.699 2.609 c -1.5 0 -2.699 -1.156 -2.699 -2.609 c 0 -1.453 1.199 -2.609 2.699 -2.609 m 0 0" fill="#000"/><path d="m 15.06 20.637 c -2.23 0 -4.063 1.773 -4.063 3.93 c 0 2.16 1.832 3.934 4.063 3.934 c 2.234 0 4.066 -1.773 4.066 -3.934 c 0 -2.156 -1.832 -3.93 -4.066 -3.93 m -0.008 1.574 c 1.629 0 2.441 0.785 2.441 2.355 c 0 1.574 -0.813 2.359 -2.441 2.359 c -1.625 0 -2.438 -0.785 -2.438 -2.359 c 0 -1.57 0.813 -2.355 2.438 -2.355 m 0 0" fill="#000"/><path d="m 15.953 23.16 c -0.922 -0.379 -1.984 0.035 -2.375 0.93 c -0.391 0.891 0.039 1.922 0.961 2.297 l 12.07 5.25 c 0.922 0.379 1.988 -0.035 2.379 -0.93 c 0.391 -0.891 -0.039 -1.922 -0.961 -2.297 m -12.08 -5.25" fill="#000"/></g></g></g></g><g><g clip-path="url(#clipPath-007036029)"><g transform="translate(0,-1)"><!-- color: #3d3d3d --><g><path d="m 31.31 12 c -3.129 0 -5.691 2.477 -5.691 5.5 c 0 3.02 2.563 5.504 5.691 5.504 c 3.125 0 5.688 -2.48 5.688 -5.504 c 0 -3.02 -2.563 -5.5 -5.688 -5.5 m 0 1.848 c 2.102 0 3.777 1.621 3.777 3.652 c 0 2.035 -1.676 3.656 -3.777 3.656 c -2.105 0 -3.781 -1.621 -3.781 -3.656 c 0 -2.031 1.676 -3.652 3.781 -3.652 m 0 0" fill="#f9f9f9"/><path d="m 33.746 17.496 c 0 1.301 -1.09 2.355 -2.438 2.355 c -1.344 0 -2.438 -1.055 -2.438 -2.355 c 0 -1.305 1.094 -2.359 2.438 -2.359 c 1.348 0 2.438 1.055 2.438 2.359 m 0 0" fill="#f9f9f9"/><path d="m 26.434 19.852 l 0 7.07 l 4.063 0.785 l 3.473 -5.867 l -3.625 0 m -3.91 -1.992" fill="#f9f9f9"/><path d="m 27.25 26.14 c -2.23 0 -4.063 1.77 -4.063 3.93 c 0 2.16 1.832 3.93 4.063 3.93 c 2.234 0 4.066 -1.77 4.066 -3.93 c 0 -2.16 -1.832 -3.93 -4.066 -3.93 m 0 1.32 c 1.504 0 2.699 1.156 2.699 2.609 c 0 1.453 -1.195 2.609 -2.699 2.609 c -1.5 0 -2.699 -1.156 -2.699 -2.609 c 0 -1.453 1.199 -2.609 2.699 -2.609 m 0 0" fill="#f9f9f9"/><path d="m 15.06 20.637 c -2.23 0 -4.063 1.773 -4.063 3.93 c 0 2.16 1.832 3.934 4.063 3.934 c 2.234 0 4.066 -1.773 4.066 -3.934 c 0 -2.156 -1.832 -3.93 -4.066 -3.93 m -0.008 1.574 c 1.629 0 2.441 0.785 2.441 2.355 c 0 1.574 -0.813 2.359 -2.441 2.359 c -1.625 0 -2.438 -0.785 -2.438 -2.359 c 0 -1.57 0.813 -2.355 2.438 -2.355 m 0 0" fill="#f9f9f9"/><path d="m 15.953 23.16 c -0.922 -0.379 -1.984 0.035 -2.375 0.93 c -0.391 0.891 0.039 1.922 0.961 2.297 l 12.07 5.25 c 0.922 0.379 1.988 -0.035 2.379 -0.93 c 0.391 -0.891 -0.039 -1.922 -0.961 -2.297 m -12.08 -5.25" fill="#f9f9f9"/></g></g></g></g><g><g transform="translate(0,-1004.3622)"><path d="m 1 1043.36 0 4 c 0 2.216 1.784 4 4 4 l 38 0 c 2.216 0 4 -1.784 4 -4 l 0 -4 c 0 2.216 -1.784 4 -4 4 l -38 0 c -2.216 0 -4 -1.784 -4 -4 z" opacity="0.1"/></g></g></svg>
